GYROFLOW CONVERSION Legal to Full.cube
LUT_1D_SIZE 4096

-0.0730593607 -0.0730593607 -0.0730593607
-0.0727741817 -0.0727741817 -0.0727741817
-0.0724890026 -0.0724890026 -0.0724890026
-0.0722038236 -0.0722038236 -0.0722038236
-0.0719186445 -0.0719186445 -0.0719186445
-0.0716334655 -0.0716334655 -0.0716334655
-0.0713482864 -0.0713482864 -0.0713482864
-0.0710631074 -0.0710631074 -0.0710631074
-0.0707779283 -0.0707779283 -0.0707779283
-0.0704927493 -0.0704927493 -0.0704927493
-0.0702075702 -0.0702075702 -0.0702075702
-0.0699223912 -0.0699223912 -0.0699223912
-0.0696372121 -0.0696372121 -0.0696372121
-0.0693520331 -0.0693520331 -0.0693520331
-0.0690668540 -0.0690668540 -0.0690668540
-0.0687816749 -0.0687816749 -0.0687816749
-0.0684964959 -0.0684964959 -0.0684964959
-0.0682113168 -0.0682113168 -0.0682113168
-0.0679261378 -0.0679261378 -0.0679261378
-0.0676409587 -0.0676409587 -0.0676409587
-0.0673557797 -0.0673557797 -0.0673557797
-0.0670706006 -0.0670706006 -0.0670706006
-0.0667854216 -0.0667854216 -0.0667854216
-0.0665002425 -0.0665002425 -0.0665002425
-0.0662150635 -0.0662150635 -0.0662150635
-0.0659298844 -0.0659298844 -0.0659298844
-0.0656447054 -0.0656447054 -0.0656447054
-0.0653595263 -0.0653595263 -0.0653595263
-0.0650743473 -0.0650743473 -0.0650743473
-0.0647891682 -0.0647891682 -0.0647891682
-0.0645039892 -0.0645039892 -0.0645039892
-0.0642188101 -0.0642188101 -0.0642188101
-0.0639336311 -0.0639336311 -0.0639336311
-0.0636484520 -0.0636484520 -0.0636484520
-0.0633632730 -0.0633632730 -0.0633632730
-0.0630780939 -0.0630780939 -0.0630780939
-0.0627929148 -0.0627929148 -0.0627929148
-0.0625077358 -0.0625077358 -0.0625077358
-0.0622225567 -0.0622225567 -0.0622225567
-0.0619373777 -0.0619373777 -0.0619373777
-0.0616521986 -0.0616521986 -0.0616521986
-0.0613670196 -0.0613670196 -0.0613670196
-0.0610818405 -0.0610818405 -0.0610818405
-0.0607966615 -0.0607966615 -0.0607966615
-0.0605114824 -0.0605114824 -0.0605114824
-0.0602263034 -0.0602263034 -0.0602263034
-0.0599411243 -0.0599411243 -0.0599411243
-0.0596559453 -0.0596559453 -0.0596559453
-0.0593707662 -0.0593707662 -0.0593707662
-0.0590855872 -0.0590855872 -0.0590855872
-0.0588004081 -0.0588004081 -0.0588004081
-0.0585152291 -0.0585152291 -0.0585152291
-0.0582300500 -0.0582300500 -0.0582300500
-0.0579448710 -0.0579448710 -0.0579448710
-0.0576596919 -0.0576596919 -0.0576596919
-0.0573745129 -0.0573745129 -0.0573745129
-0.0570893338 -0.0570893338 -0.0570893338
-0.0568041547 -0.0568041547 -0.0568041547
-0.0565189757 -0.0565189757 -0.0565189757
-0.0562337966 -0.0562337966 -0.0562337966
-0.0559486176 -0.0559486176 -0.0559486176
-0.0556634385 -0.0556634385 -0.0556634385
-0.0553782595 -0.0553782595 -0.0553782595
-0.0550930804 -0.0550930804 -0.0550930804
-0.0548079014 -0.0548079014 -0.0548079014
-0.0545227223 -0.0545227223 -0.0545227223
-0.0542375433 -0.0542375433 -0.0542375433
-0.0539523642 -0.0539523642 -0.0539523642
-0.0536671852 -0.0536671852 -0.0536671852
-0.0533820061 -0.0533820061 -0.0533820061
-0.0530968271 -0.0530968271 -0.0530968271
-0.0528116480 -0.0528116480 -0.0528116480
-0.0525264690 -0.0525264690 -0.0525264690
-0.0522412899 -0.0522412899 -0.0522412899
-0.0519561109 -0.0519561109 -0.0519561109
-0.0516709318 -0.0516709318 -0.0516709318
-0.0513857528 -0.0513857528 -0.0513857528
-0.0511005737 -0.0511005737 -0.0511005737
-0.0508153947 -0.0508153947 -0.0508153947
-0.0505302156 -0.0505302156 -0.0505302156
-0.0502450365 -0.0502450365 -0.0502450365
-0.0499598575 -0.0499598575 -0.0499598575
-0.0496746784 -0.0496746784 -0.0496746784
-0.0493894994 -0.0493894994 -0.0493894994
-0.0491043203 -0.0491043203 -0.0491043203
-0.0488191413 -0.0488191413 -0.0488191413
-0.0485339622 -0.0485339622 -0.0485339622
-0.0482487832 -0.0482487832 -0.0482487832
-0.0479636041 -0.0479636041 -0.0479636041
-0.0476784251 -0.0476784251 -0.0476784251
-0.0473932460 -0.0473932460 -0.0473932460
-0.0471080670 -0.0471080670 -0.0471080670
-0.0468228879 -0.0468228879 -0.0468228879
-0.0465377089 -0.0465377089 -0.0465377089
-0.0462525298 -0.0462525298 -0.0462525298
-0.0459673508 -0.0459673508 -0.0459673508
-0.0456821717 -0.0456821717 -0.0456821717
-0.0453969927 -0.0453969927 -0.0453969927
-0.0451118136 -0.0451118136 -0.0451118136
-0.0448266346 -0.0448266346 -0.0448266346
-0.0445414555 -0.0445414555 -0.0445414555
-0.0442562764 -0.0442562764 -0.0442562764
-0.0439710974 -0.0439710974 -0.0439710974
-0.0436859183 -0.0436859183 -0.0436859183
-0.0434007393 -0.0434007393 -0.0434007393
-0.0431155602 -0.0431155602 -0.0431155602
-0.0428303812 -0.0428303812 -0.0428303812
-0.0425452021 -0.0425452021 -0.0425452021
-0.0422600231 -0.0422600231 -0.0422600231
-0.0419748440 -0.0419748440 -0.0419748440
-0.0416896650 -0.0416896650 -0.0416896650
-0.0414044859 -0.0414044859 -0.0414044859
-0.0411193069 -0.0411193069 -0.0411193069
-0.0408341278 -0.0408341278 -0.0408341278
-0.0405489488 -0.0405489488 -0.0405489488
-0.0402637697 -0.0402637697 -0.0402637697
-0.0399785907 -0.0399785907 -0.0399785907
-0.0396934116 -0.0396934116 -0.0396934116
-0.0394082326 -0.0394082326 -0.0394082326
-0.0391230535 -0.0391230535 -0.0391230535
-0.0388378745 -0.0388378745 -0.0388378745
-0.0385526954 -0.0385526954 -0.0385526954
-0.0382675163 -0.0382675163 -0.0382675163
-0.0379823373 -0.0379823373 -0.0379823373
-0.0376971582 -0.0376971582 -0.0376971582
-0.0374119792 -0.0374119792 -0.0374119792
-0.0371268001 -0.0371268001 -0.0371268001
-0.0368416211 -0.0368416211 -0.0368416211
-0.0365564420 -0.0365564420 -0.0365564420
-0.0362712630 -0.0362712630 -0.0362712630
-0.0359860839 -0.0359860839 -0.0359860839
-0.0357009049 -0.0357009049 -0.0357009049
-0.0354157258 -0.0354157258 -0.0354157258
-0.0351305468 -0.0351305468 -0.0351305468
-0.0348453677 -0.0348453677 -0.0348453677
-0.0345601887 -0.0345601887 -0.0345601887
-0.0342750096 -0.0342750096 -0.0342750096
-0.0339898306 -0.0339898306 -0.0339898306
-0.0337046515 -0.0337046515 -0.0337046515
-0.0334194725 -0.0334194725 -0.0334194725
-0.0331342934 -0.0331342934 -0.0331342934
-0.0328491144 -0.0328491144 -0.0328491144
-0.0325639353 -0.0325639353 -0.0325639353
-0.0322787563 -0.0322787563 -0.0322787563
-0.0319935772 -0.0319935772 -0.0319935772
-0.0317083981 -0.0317083981 -0.0317083981
-0.0314232191 -0.0314232191 -0.0314232191
-0.0311380400 -0.0311380400 -0.0311380400
-0.0308528610 -0.0308528610 -0.0308528610
-0.0305676819 -0.0305676819 -0.0305676819
-0.0302825029 -0.0302825029 -0.0302825029
-0.0299973238 -0.0299973238 -0.0299973238
-0.0297121448 -0.0297121448 -0.0297121448
-0.0294269657 -0.0294269657 -0.0294269657
-0.0291417867 -0.0291417867 -0.0291417867
-0.0288566076 -0.0288566076 -0.0288566076
-0.0285714286 -0.0285714286 -0.0285714286
-0.0282862495 -0.0282862495 -0.0282862495
-0.0280010705 -0.0280010705 -0.0280010705
-0.0277158914 -0.0277158914 -0.0277158914
-0.0274307124 -0.0274307124 -0.0274307124
-0.0271455333 -0.0271455333 -0.0271455333
-0.0268603543 -0.0268603543 -0.0268603543
-0.0265751752 -0.0265751752 -0.0265751752
-0.0262899962 -0.0262899962 -0.0262899962
-0.0260048171 -0.0260048171 -0.0260048171
-0.0257196380 -0.0257196380 -0.0257196380
-0.0254344590 -0.0254344590 -0.0254344590
-0.0251492799 -0.0251492799 -0.0251492799
-0.0248641009 -0.0248641009 -0.0248641009
-0.0245789218 -0.0245789218 -0.0245789218
-0.0242937428 -0.0242937428 -0.0242937428
-0.0240085637 -0.0240085637 -0.0240085637
-0.0237233847 -0.0237233847 -0.0237233847
-0.0234382056 -0.0234382056 -0.0234382056
-0.0231530266 -0.0231530266 -0.0231530266
-0.0228678475 -0.0228678475 -0.0228678475
-0.0225826685 -0.0225826685 -0.0225826685
-0.0222974894 -0.0222974894 -0.0222974894
-0.0220123104 -0.0220123104 -0.0220123104
-0.0217271313 -0.0217271313 -0.0217271313
-0.0214419523 -0.0214419523 -0.0214419523
-0.0211567732 -0.0211567732 -0.0211567732
-0.0208715942 -0.0208715942 -0.0208715942
-0.0205864151 -0.0205864151 -0.0205864151
-0.0203012361 -0.0203012361 -0.0203012361
-0.0200160570 -0.0200160570 -0.0200160570
-0.0197308780 -0.0197308780 -0.0197308780
-0.0194456989 -0.0194456989 -0.0194456989
-0.0191605198 -0.0191605198 -0.0191605198
-0.0188753408 -0.0188753408 -0.0188753408
-0.0185901617 -0.0185901617 -0.0185901617
-0.0183049827 -0.0183049827 -0.0183049827
-0.0180198036 -0.0180198036 -0.0180198036
-0.0177346246 -0.0177346246 -0.0177346246
-0.0174494455 -0.0174494455 -0.0174494455
-0.0171642665 -0.0171642665 -0.0171642665
-0.0168790874 -0.0168790874 -0.0168790874
-0.0165939084 -0.0165939084 -0.0165939084
-0.0163087293 -0.0163087293 -0.0163087293
-0.0160235503 -0.0160235503 -0.0160235503
-0.0157383712 -0.0157383712 -0.0157383712
-0.0154531922 -0.0154531922 -0.0154531922
-0.0151680131 -0.0151680131 -0.0151680131
-0.0148828341 -0.0148828341 -0.0148828341
-0.0145976550 -0.0145976550 -0.0145976550
-0.0143124760 -0.0143124760 -0.0143124760
-0.0140272969 -0.0140272969 -0.0140272969
-0.0137421179 -0.0137421179 -0.0137421179
-0.0134569388 -0.0134569388 -0.0134569388
-0.0131717597 -0.0131717597 -0.0131717597
-0.0128865807 -0.0128865807 -0.0128865807
-0.0126014016 -0.0126014016 -0.0126014016
-0.0123162226 -0.0123162226 -0.0123162226
-0.0120310435 -0.0120310435 -0.0120310435
-0.0117458645 -0.0117458645 -0.0117458645
-0.0114606854 -0.0114606854 -0.0114606854
-0.0111755064 -0.0111755064 -0.0111755064
-0.0108903273 -0.0108903273 -0.0108903273
-0.0106051483 -0.0106051483 -0.0106051483
-0.0103199692 -0.0103199692 -0.0103199692
-0.0100347902 -0.0100347902 -0.0100347902
-0.0097496111 -0.0097496111 -0.0097496111
-0.0094644321 -0.0094644321 -0.0094644321
-0.0091792530 -0.0091792530 -0.0091792530
-0.0088940740 -0.0088940740 -0.0088940740
-0.0086088949 -0.0086088949 -0.0086088949
-0.0083237159 -0.0083237159 -0.0083237159
-0.0080385368 -0.0080385368 -0.0080385368
-0.0077533578 -0.0077533578 -0.0077533578
-0.0074681787 -0.0074681787 -0.0074681787
-0.0071829996 -0.0071829996 -0.0071829996
-0.0068978206 -0.0068978206 -0.0068978206
-0.0066126415 -0.0066126415 -0.0066126415
-0.0063274625 -0.0063274625 -0.0063274625
-0.0060422834 -0.0060422834 -0.0060422834
-0.0057571044 -0.0057571044 -0.0057571044
-0.0054719253 -0.0054719253 -0.0054719253
-0.0051867463 -0.0051867463 -0.0051867463
-0.0049015672 -0.0049015672 -0.0049015672
-0.0046163882 -0.0046163882 -0.0046163882
-0.0043312091 -0.0043312091 -0.0043312091
-0.0040460301 -0.0040460301 -0.0040460301
-0.0037608510 -0.0037608510 -0.0037608510
-0.0034756720 -0.0034756720 -0.0034756720
-0.0031904929 -0.0031904929 -0.0031904929
-0.0029053139 -0.0029053139 -0.0029053139
-0.0026201348 -0.0026201348 -0.0026201348
-0.0023349558 -0.0023349558 -0.0023349558
-0.0020497767 -0.0020497767 -0.0020497767
-0.0017645977 -0.0017645977 -0.0017645977
-0.0014794186 -0.0014794186 -0.0014794186
-0.0011942396 -0.0011942396 -0.0011942396
-0.0009090605 -0.0009090605 -0.0009090605
-0.0006238814 -0.0006238814 -0.0006238814
-0.0003387024 -0.0003387024 -0.0003387024
-0.0000535233 -0.0000535233 -0.0000535233
0.0002316557 0.0002316557 0.0002316557
0.0005168348 0.0005168348 0.0005168348
0.0008020138 0.0008020138 0.0008020138
0.0010871929 0.0010871929 0.0010871929
0.0013723719 0.0013723719 0.0013723719
0.0016575510 0.0016575510 0.0016575510
0.0019427300 0.0019427300 0.0019427300
0.0022279091 0.0022279091 0.0022279091
0.0025130881 0.0025130881 0.0025130881
0.0027982672 0.0027982672 0.0027982672
0.0030834462 0.0030834462 0.0030834462
0.0033686253 0.0033686253 0.0033686253
0.0036538043 0.0036538043 0.0036538043
0.0039389834 0.0039389834 0.0039389834
0.0042241624 0.0042241624 0.0042241624
0.0045093415 0.0045093415 0.0045093415
0.0047945205 0.0047945205 0.0047945205
0.0050796996 0.0050796996 0.0050796996
0.0053648787 0.0053648787 0.0053648787
0.0056500577 0.0056500577 0.0056500577
0.0059352368 0.0059352368 0.0059352368
0.0062204158 0.0062204158 0.0062204158
0.0065055949 0.0065055949 0.0065055949
0.0067907739 0.0067907739 0.0067907739
0.0070759530 0.0070759530 0.0070759530
0.0073611320 0.0073611320 0.0073611320
0.0076463111 0.0076463111 0.0076463111
0.0079314901 0.0079314901 0.0079314901
0.0082166692 0.0082166692 0.0082166692
0.0085018482 0.0085018482 0.0085018482
0.0087870273 0.0087870273 0.0087870273
0.0090722063 0.0090722063 0.0090722063
0.0093573854 0.0093573854 0.0093573854
0.0096425644 0.0096425644 0.0096425644
0.0099277435 0.0099277435 0.0099277435
0.0102129225 0.0102129225 0.0102129225
0.0104981016 0.0104981016 0.0104981016
0.0107832806 0.0107832806 0.0107832806
0.0110684597 0.0110684597 0.0110684597
0.0113536388 0.0113536388 0.0113536388
0.0116388178 0.0116388178 0.0116388178
0.0119239969 0.0119239969 0.0119239969
0.0122091759 0.0122091759 0.0122091759
0.0124943550 0.0124943550 0.0124943550
0.0127795340 0.0127795340 0.0127795340
0.0130647131 0.0130647131 0.0130647131
0.0133498921 0.0133498921 0.0133498921
0.0136350712 0.0136350712 0.0136350712
0.0139202502 0.0139202502 0.0139202502
0.0142054293 0.0142054293 0.0142054293
0.0144906083 0.0144906083 0.0144906083
0.0147757874 0.0147757874 0.0147757874
0.0150609664 0.0150609664 0.0150609664
0.0153461455 0.0153461455 0.0153461455
0.0156313245 0.0156313245 0.0156313245
0.0159165036 0.0159165036 0.0159165036
0.0162016826 0.0162016826 0.0162016826
0.0164868617 0.0164868617 0.0164868617
0.0167720407 0.0167720407 0.0167720407
0.0170572198 0.0170572198 0.0170572198
0.0173423988 0.0173423988 0.0173423988
0.0176275779 0.0176275779 0.0176275779
0.0179127570 0.0179127570 0.0179127570
0.0181979360 0.0181979360 0.0181979360
0.0184831151 0.0184831151 0.0184831151
0.0187682941 0.0187682941 0.0187682941
0.0190534732 0.0190534732 0.0190534732
0.0193386522 0.0193386522 0.0193386522
0.0196238313 0.0196238313 0.0196238313
0.0199090103 0.0199090103 0.0199090103
0.0201941894 0.0201941894 0.0201941894
0.0204793684 0.0204793684 0.0204793684
0.0207645475 0.0207645475 0.0207645475
0.0210497265 0.0210497265 0.0210497265
0.0213349056 0.0213349056 0.0213349056
0.0216200846 0.0216200846 0.0216200846
0.0219052637 0.0219052637 0.0219052637
0.0221904427 0.0221904427 0.0221904427
0.0224756218 0.0224756218 0.0224756218
0.0227608008 0.0227608008 0.0227608008
0.0230459799 0.0230459799 0.0230459799
0.0233311589 0.0233311589 0.0233311589
0.0236163380 0.0236163380 0.0236163380
0.0239015171 0.0239015171 0.0239015171
0.0241866961 0.0241866961 0.0241866961
0.0244718752 0.0244718752 0.0244718752
0.0247570542 0.0247570542 0.0247570542
0.0250422333 0.0250422333 0.0250422333
0.0253274123 0.0253274123 0.0253274123
0.0256125914 0.0256125914 0.0256125914
0.0258977704 0.0258977704 0.0258977704
0.0261829495 0.0261829495 0.0261829495
0.0264681285 0.0264681285 0.0264681285
0.0267533076 0.0267533076 0.0267533076
0.0270384866 0.0270384866 0.0270384866
0.0273236657 0.0273236657 0.0273236657
0.0276088447 0.0276088447 0.0276088447
0.0278940238 0.0278940238 0.0278940238
0.0281792028 0.0281792028 0.0281792028
0.0284643819 0.0284643819 0.0284643819
0.0287495609 0.0287495609 0.0287495609
0.0290347400 0.0290347400 0.0290347400
0.0293199190 0.0293199190 0.0293199190
0.0296050981 0.0296050981 0.0296050981
0.0298902772 0.0298902772 0.0298902772
0.0301754562 0.0301754562 0.0301754562
0.0304606353 0.0304606353 0.0304606353
0.0307458143 0.0307458143 0.0307458143
0.0310309934 0.0310309934 0.0310309934
0.0313161724 0.0313161724 0.0313161724
0.0316013515 0.0316013515 0.0316013515
0.0318865305 0.0318865305 0.0318865305
0.0321717096 0.0321717096 0.0321717096
0.0324568886 0.0324568886 0.0324568886
0.0327420677 0.0327420677 0.0327420677
0.0330272467 0.0330272467 0.0330272467
0.0333124258 0.0333124258 0.0333124258
0.0335976048 0.0335976048 0.0335976048
0.0338827839 0.0338827839 0.0338827839
0.0341679629 0.0341679629 0.0341679629
0.0344531420 0.0344531420 0.0344531420
0.0347383210 0.0347383210 0.0347383210
0.0350235001 0.0350235001 0.0350235001
0.0353086791 0.0353086791 0.0353086791
0.0355938582 0.0355938582 0.0355938582
0.0358790372 0.0358790372 0.0358790372
0.0361642163 0.0361642163 0.0361642163
0.0364493954 0.0364493954 0.0364493954
0.0367345744 0.0367345744 0.0367345744
0.0370197535 0.0370197535 0.0370197535
0.0373049325 0.0373049325 0.0373049325
0.0375901116 0.0375901116 0.0375901116
0.0378752906 0.0378752906 0.0378752906
0.0381604697 0.0381604697 0.0381604697
0.0384456487 0.0384456487 0.0384456487
0.0387308278 0.0387308278 0.0387308278
0.0390160068 0.0390160068 0.0390160068
0.0393011859 0.0393011859 0.0393011859
0.0395863649 0.0395863649 0.0395863649
0.0398715440 0.0398715440 0.0398715440
0.0401567230 0.0401567230 0.0401567230
0.0404419021 0.0404419021 0.0404419021
0.0407270811 0.0407270811 0.0407270811
0.0410122602 0.0410122602 0.0410122602
0.0412974392 0.0412974392 0.0412974392
0.0415826183 0.0415826183 0.0415826183
0.0418677973 0.0418677973 0.0418677973
0.0421529764 0.0421529764 0.0421529764
0.0424381555 0.0424381555 0.0424381555
0.0427233345 0.0427233345 0.0427233345
0.0430085136 0.0430085136 0.0430085136
0.0432936926 0.0432936926 0.0432936926
0.0435788717 0.0435788717 0.0435788717
0.0438640507 0.0438640507 0.0438640507
0.0441492298 0.0441492298 0.0441492298
0.0444344088 0.0444344088 0.0444344088
0.0447195879 0.0447195879 0.0447195879
0.0450047669 0.0450047669 0.0450047669
0.0452899460 0.0452899460 0.0452899460
0.0455751250 0.0455751250 0.0455751250
0.0458603041 0.0458603041 0.0458603041
0.0461454831 0.0461454831 0.0461454831
0.0464306622 0.0464306622 0.0464306622
0.0467158412 0.0467158412 0.0467158412
0.0470010203 0.0470010203 0.0470010203
0.0472861993 0.0472861993 0.0472861993
0.0475713784 0.0475713784 0.0475713784
0.0478565574 0.0478565574 0.0478565574
0.0481417365 0.0481417365 0.0481417365
0.0484269156 0.0484269156 0.0484269156
0.0487120946 0.0487120946 0.0487120946
0.0489972737 0.0489972737 0.0489972737
0.0492824527 0.0492824527 0.0492824527
0.0495676318 0.0495676318 0.0495676318
0.0498528108 0.0498528108 0.0498528108
0.0501379899 0.0501379899 0.0501379899
0.0504231689 0.0504231689 0.0504231689
0.0507083480 0.0507083480 0.0507083480
0.0509935270 0.0509935270 0.0509935270
0.0512787061 0.0512787061 0.0512787061
0.0515638851 0.0515638851 0.0515638851
0.0518490642 0.0518490642 0.0518490642
0.0521342432 0.0521342432 0.0521342432
0.0524194223 0.0524194223 0.0524194223
0.0527046013 0.0527046013 0.0527046013
0.0529897804 0.0529897804 0.0529897804
0.0532749594 0.0532749594 0.0532749594
0.0535601385 0.0535601385 0.0535601385
0.0538453175 0.0538453175 0.0538453175
0.0541304966 0.0541304966 0.0541304966
0.0544156756 0.0544156756 0.0544156756
0.0547008547 0.0547008547 0.0547008547
0.0549860338 0.0549860338 0.0549860338
0.0552712128 0.0552712128 0.0552712128
0.0555563919 0.0555563919 0.0555563919
0.0558415709 0.0558415709 0.0558415709
0.0561267500 0.0561267500 0.0561267500
0.0564119290 0.0564119290 0.0564119290
0.0566971081 0.0566971081 0.0566971081
0.0569822871 0.0569822871 0.0569822871
0.0572674662 0.0572674662 0.0572674662
0.0575526452 0.0575526452 0.0575526452
0.0578378243 0.0578378243 0.0578378243
0.0581230033 0.0581230033 0.0581230033
0.0584081824 0.0584081824 0.0584081824
0.0586933614 0.0586933614 0.0586933614
0.0589785405 0.0589785405 0.0589785405
0.0592637195 0.0592637195 0.0592637195
0.0595488986 0.0595488986 0.0595488986
0.0598340776 0.0598340776 0.0598340776
0.0601192567 0.0601192567 0.0601192567
0.0604044357 0.0604044357 0.0604044357
0.0606896148 0.0606896148 0.0606896148
0.0609747939 0.0609747939 0.0609747939
0.0612599729 0.0612599729 0.0612599729
0.0615451520 0.0615451520 0.0615451520
0.0618303310 0.0618303310 0.0618303310
0.0621155101 0.0621155101 0.0621155101
0.0624006891 0.0624006891 0.0624006891
0.0626858682 0.0626858682 0.0626858682
0.0629710472 0.0629710472 0.0629710472
0.0632562263 0.0632562263 0.0632562263
0.0635414053 0.0635414053 0.0635414053
0.0638265844 0.0638265844 0.0638265844
0.0641117634 0.0641117634 0.0641117634
0.0643969425 0.0643969425 0.0643969425
0.0646821215 0.0646821215 0.0646821215
0.0649673006 0.0649673006 0.0649673006
0.0652524796 0.0652524796 0.0652524796
0.0655376587 0.0655376587 0.0655376587
0.0658228377 0.0658228377 0.0658228377
0.0661080168 0.0661080168 0.0661080168
0.0663931958 0.0663931958 0.0663931958
0.0666783749 0.0666783749 0.0666783749
0.0669635539 0.0669635539 0.0669635539
0.0672487330 0.0672487330 0.0672487330
0.0675339121 0.0675339121 0.0675339121
0.0678190911 0.0678190911 0.0678190911
0.0681042702 0.0681042702 0.0681042702
0.0683894492 0.0683894492 0.0683894492
0.0686746283 0.0686746283 0.0686746283
0.0689598073 0.0689598073 0.0689598073
0.0692449864 0.0692449864 0.0692449864
0.0695301654 0.0695301654 0.0695301654
0.0698153445 0.0698153445 0.0698153445
0.0701005235 0.0701005235 0.0701005235
0.0703857026 0.0703857026 0.0703857026
0.0706708816 0.0706708816 0.0706708816
0.0709560607 0.0709560607 0.0709560607
0.0712412397 0.0712412397 0.0712412397
0.0715264188 0.0715264188 0.0715264188
0.0718115978 0.0718115978 0.0718115978
0.0720967769 0.0720967769 0.0720967769
0.0723819559 0.0723819559 0.0723819559
0.0726671350 0.0726671350 0.0726671350
0.0729523140 0.0729523140 0.0729523140
0.0732374931 0.0732374931 0.0732374931
0.0735226722 0.0735226722 0.0735226722
0.0738078512 0.0738078512 0.0738078512
0.0740930303 0.0740930303 0.0740930303
0.0743782093 0.0743782093 0.0743782093
0.0746633884 0.0746633884 0.0746633884
0.0749485674 0.0749485674 0.0749485674
0.0752337465 0.0752337465 0.0752337465
0.0755189255 0.0755189255 0.0755189255
0.0758041046 0.0758041046 0.0758041046
0.0760892836 0.0760892836 0.0760892836
0.0763744627 0.0763744627 0.0763744627
0.0766596417 0.0766596417 0.0766596417
0.0769448208 0.0769448208 0.0769448208
0.0772299998 0.0772299998 0.0772299998
0.0775151789 0.0775151789 0.0775151789
0.0778003579 0.0778003579 0.0778003579
0.0780855370 0.0780855370 0.0780855370
0.0783707160 0.0783707160 0.0783707160
0.0786558951 0.0786558951 0.0786558951
0.0789410741 0.0789410741 0.0789410741
0.0792262532 0.0792262532 0.0792262532
0.0795114323 0.0795114323 0.0795114323
0.0797966113 0.0797966113 0.0797966113
0.0800817904 0.0800817904 0.0800817904
0.0803669694 0.0803669694 0.0803669694
0.0806521485 0.0806521485 0.0806521485
0.0809373275 0.0809373275 0.0809373275
0.0812225066 0.0812225066 0.0812225066
0.0815076856 0.0815076856 0.0815076856
0.0817928647 0.0817928647 0.0817928647
0.0820780437 0.0820780437 0.0820780437
0.0823632228 0.0823632228 0.0823632228
0.0826484018 0.0826484018 0.0826484018
0.0829335809 0.0829335809 0.0829335809
0.0832187599 0.0832187599 0.0832187599
0.0835039390 0.0835039390 0.0835039390
0.0837891180 0.0837891180 0.0837891180
0.0840742971 0.0840742971 0.0840742971
0.0843594761 0.0843594761 0.0843594761
0.0846446552 0.0846446552 0.0846446552
0.0849298342 0.0849298342 0.0849298342
0.0852150133 0.0852150133 0.0852150133
0.0855001923 0.0855001923 0.0855001923
0.0857853714 0.0857853714 0.0857853714
0.0860705505 0.0860705505 0.0860705505
0.0863557295 0.0863557295 0.0863557295
0.0866409086 0.0866409086 0.0866409086
0.0869260876 0.0869260876 0.0869260876
0.0872112667 0.0872112667 0.0872112667
0.0874964457 0.0874964457 0.0874964457
0.0877816248 0.0877816248 0.0877816248
0.0880668038 0.0880668038 0.0880668038
0.0883519829 0.0883519829 0.0883519829
0.0886371619 0.0886371619 0.0886371619
0.0889223410 0.0889223410 0.0889223410
0.0892075200 0.0892075200 0.0892075200
0.0894926991 0.0894926991 0.0894926991
0.0897778781 0.0897778781 0.0897778781
0.0900630572 0.0900630572 0.0900630572
0.0903482362 0.0903482362 0.0903482362
0.0906334153 0.0906334153 0.0906334153
0.0909185943 0.0909185943 0.0909185943
0.0912037734 0.0912037734 0.0912037734
0.0914889524 0.0914889524 0.0914889524
0.0917741315 0.0917741315 0.0917741315
0.0920593106 0.0920593106 0.0920593106
0.0923444896 0.0923444896 0.0923444896
0.0926296687 0.0926296687 0.0926296687
0.0929148477 0.0929148477 0.0929148477
0.0932000268 0.0932000268 0.0932000268
0.0934852058 0.0934852058 0.0934852058
0.0937703849 0.0937703849 0.0937703849
0.0940555639 0.0940555639 0.0940555639
0.0943407430 0.0943407430 0.0943407430
0.0946259220 0.0946259220 0.0946259220
0.0949111011 0.0949111011 0.0949111011
0.0951962801 0.0951962801 0.0951962801
0.0954814592 0.0954814592 0.0954814592
0.0957666382 0.0957666382 0.0957666382
0.0960518173 0.0960518173 0.0960518173
0.0963369963 0.0963369963 0.0963369963
